icons/16/shield.svg

<svg width="16" height="16" viewBox="0 0 16 16" xmlns="http://www.w3.org/2000/svg">
  <path fill-rule="evenodd" clip-rule="evenodd" d="M2.5 2.5V7.022C2.5 9.706 3.89 11.433 5.328 12.52C6.1347 13.1232 7.02818 13.6006 7.978 13.936L8.002 13.944L8.026 13.936C8.97518 13.6006 9.868 13.1232 10.674 12.52C12.112 11.434 13.5 9.707 13.5 7.022V2.5H2.5ZM8.002 14.73L7.802 15.453H7.798L7.793 15.451L7.773 15.445C7.6774 15.4177 7.58269 15.3873 7.489 15.354C6.3901 14.9672 5.35657 14.4152 4.424 13.717C2.737 12.443 1 10.316 1 7.022V2.5C1 2.10218 1.15804 1.72064 1.43934 1.43934C1.72064 1.15804 2.10218 1 2.5 1H13.5C14.327 1 15 1.668 15 2.499V7.022C15 10.316 13.264 12.442 11.578 13.717C10.6461 14.4152 9.61327 14.9672 8.515 15.354C8.42097 15.3863 8.32628 15.4166 8.231 15.445L8.212 15.451L8.206 15.453H8.203L8.003 14.731L8.002 14.73ZM8.002 14.73L7.802 15.454C7.93287 15.4902 8.07113 15.4902 8.202 15.454L8.002 14.731V14.73Z"/>
</svg>

<svg width="16" height="16" viewBox="0 0 16 16" xmlns="http://www.w3.org/2000/svg">
  <path fill-rule="evenodd" clip-rule="evenodd" d="M2.499 2.5zm.001 0v4.522c0 2.684 1.39 4.411 2.828 5.498a9.966 9.966 0 002.65 1.416l.024.008.024-.008a9.956 9.956 0 002.648-1.416c1.438-1.086 2.826-2.813 2.826-5.498V2.5h-11zm5.502 12.23l-.2.723h-.004l-.005-.002-.02-.006a4.736 4.736 0 01-.284-.091 11.466 11.466 0 01-3.065-1.637C2.737 12.443 1 10.316 1 7.022V2.5A1.5 1.5 0 012.5 1h11c.827 0 1.5.668 1.5 1.499v4.523c0 3.294-1.736 5.42-3.422 6.695a11.454 11.454 0 01-3.063 1.637 7.24 7.24 0 01-.284.091l-.019.006-.006.002h-.003l-.2-.722zm0 0l-.2.724a.75.75 0 00.4 0l-.2-.723z"/>
</svg>
